X:1
T:Domine Jesu Christe
T:Domine Jesu Christe
T:Jean Maillard
C:Jean Maillard
%%score [ 1 2 [ 3 4 ] ]
L:1/8
Q:1/4=120
M:2/2
K:C
V:1 treble nm="Soprano" snm="S"
V:2 treble nm="Alto" snm="A"
V:3 treble-8 nm="Tenor 1" snm="T 1"
V:4 treble-8 nm="Tenor 2" snm="T 2"
V:1
 z8 | z4 A4- | A2 B2 c2 d2 | e2 f4 ed | c3 d e2 c2 | d4 c4- | c2 B2 A2 c2 |"^b" BA A4 G2 | A4 z4 | %9
w: |Do-|* mi- ne Je-|su Chri- * *|ste, _ _ _|_ Do-|* mi- ne Je-|su _ Chri- *|ste|
 z4 d4- | d4 c4 | d4 d4 | z2 d4 c2 | d4 d4 | f4 d4- | d4 c4- | c4 z2 c2- | c2 d2 e4 | f4 e3 d/c/ | %19
w: Do-|* mi-|_ ne|Je- *|su Chri-|* ste,|_ _|* Pa-|* stor bo-||
 B2 c3 A d2- | d2 c2 A4 | z2 A4 B2 | c3 B A2 G2 | A4 z2 d2- | d2 d2 f4 | e2 c2 d2 f2- | %26
w: |* * ne,|Pa- stor|bo- * * *|ne, se-|* mi- na-|tor ca- sti con-|
 f2 ed c3 d | e4 d4 | c4 z2 A2- |"^-natural" A2 A2 B2 A2- | A2 G2 A2 c2- | c2 BA G3 A | B2 c2 A4 | %33
w: * * * si- *|* li-|i, se-|* mi- na- tor|_ ca- sti con-|* * * si- *|* * li-|
 G4 z2 G2 | A2 c2 B2 A2- |"^#" A2 G2 A2 e2 | e2 e2 f3 f | e2 d4 c2- | cdec de f2 | e2 d4 cB | %40
w: i, ca-|sti con- si- li-|* * i, sus-|ci- pe se- mi-|num fru- stus,|_ _ _ _ _ _ _||
 c4 z2 A2- | A2 A2 A2 d2- | d2 c2 c4 | B4 G4 | z2 A2 B2 G2 | c3 B A4 | z8 | z2 d2 e2 g2 | %48
w: * sus-|* ci- pe se-|* mi- num|fru ctus,|quos in Ce-|ci- li- a,||quos in Ce-|
 f3 e d2 e2- | eded cB A2 | c4 B2 d2 | c4 A4- | A4 z4 | d8 | c4 d4- | d2 d2 d4- | d4 c4- | %57
w: ci- li- a se-||* * mi-|na- sti.|_|Ce-|ci- _|_ li- a|_ fa-|
 c2 c2 c4 | c6 B2 | c8- | c4 z2 c2- | c2 B2 A4 | A8 | z2 A3 A d2 | c2 A2 c3 d | e6 c2- | %66
w: * mu- la,|tu- *|a,|_ qua-|* si a-|pis,|ti bi ar-|gu- men- to- *|sa de-|
 c2 d2 e2 f2- | f2 ed c4 | z2 A3 A d2 | c2 A2 c4 | B2 c4 d2 | e2 c2 d4 | c2 d4 cB | c6 B2 | %74
w: * ser- * vit,|_ _ _ _|ti- bi ar-|gu- men- to-|sa de- ser-|* * vit,|de- ser- * *||
 A2 d3 d g2 | f2 d2 f4 | e2 AB cd e2- | ed d4 c2 | d8 || z8 | z8 | d4 d4 | A2 d4 c2 | d2 d2 f2 e2 | %84
w: vit, ti- bi ar-|gu- men- to-|sa de- * * * *|* * * ser-|vit.|||Nam spon-|sum, quem qua-|si le- o- nem|
 c3 d e4 | e2 e4 f2 | e4 c4 | z2 d4 c2 | d2 d2 f2 e2 | dcde f2 e2 | ABcd ef g2- | g2 f3 e d2- | %92
w: fe- * *|ro- cem ac-|ce- pit,|quem qua-|si le- o- nem|fe- * * * ro- cem|ac- * * * * * *||
 d2 c2 c4- | c4 z4 | z2 A4 G2 | A2 c2 B2 A2 | d4 c4- | c4 z2 A2 | ABcd ed e2- | ed c2 B2 c2- | %100
w: * ce- pit,|_|fe- ro-|cem ac- ce- *|* pit,|_ fe-|ro- * * * * * *|* * * cem ac-|
 c2 BA B4 | c4 z4 | z4 z2 A2 | d2 d3 d c2 | d2 f2 f2 e2 | f2 f2 e2 A2 | c2 d4 c2 | d3 c/d/ e2 d2- | %108
w: * * * ce-|pit,|ad|te qua- si a-|gnum man- su- e-|tis- si- mum des-|ti- na- *||
 d2 c2 z2 d2- | d2 c2 A2 c2- | c2 B2 A4- | A4 A4- | A4 c4 | d6 c2 | c8 | z2 d4 c2 | d2 B2 A2 c2- | %117
w: * vit, des-|* ti- na- *|* * vit.|_ Ce-|* ci-|* li-|a|fa- mu-|la _ _ _|
 cB A4 G2 | A8 | z2 d4 c2 | ABcd ef e2- | e2 e3 d d2- | d2 c2 d4 | c4 z2 A2- | A2 c2 Bc d2- | %125
w: _ _ _ tu-|a,|fa- mu-|la _ _ _ _ _ _|_ tu- * *||a, qua-|* si a- * *|
 d2 c2 z2 d2 | f2 e3 d d2 | cdec d2 e2- | ed d4 c2 | B2 A2 B3 c | d2 c4 B2 | A8 | z2 A2 e2 g2 | %133
w: * pis, qua-|si a- * *|||||pis,|ti- bi ar-|
 f2 d2 f3 e/d/ | c4 z2 A2 | d2 f4 e2 | d2 f4 e2 | c2 d2 e2 f2- | f2 ed f2 e2- | e2 d3 cde | %140
w: gu- men- to- * *|sa, ti-|bi ar- gu-|men- to- sa|de- ser- * *|||
 dcBA B4 | A4 z2 E2 | A2 c2 B2 A2 | d4 c2 f2- | f4 e2 d2 | c2 d4 c2 | d8- | d8 |] %148
w: |vit, ti-|bi ar- gu- men-|to- sa de-|* ser- *|||vit.-|
V:2
 D6 D2 | D4 F4 | E4 A4- | A4 A4- | A4 z2 A2- | A2 G2 A4- | A2 GF E4 | F4 D4- | D2 E2 F2 G2 | %9
w: Do- mi-|ne Je-|su Chri-|* ste,|_ Je-|* su Chri-||ste, Do-|* mi- ne Je-|
"^b" A2 B4 A2- | A2 G2 A4 | z2 G4 F2 |"^b" B4 A2 A2- |"^b" A2 A2 A2 B2- | B2 A4 G2 | F2 D2 A4- | %16
w: su Chri- *|* * ste,|Je- su|Chri- ste,- Je-|* su Chri- *||* * ste,|
 A8 | F4 G2 A2- | A2 GF G2 A2- | A2 G2 A2 F2 | E4 z2 A,2 | B,2 C2 D4 | z2 C4 D2 | E3 F G2 A2- | %24
w: _|Pa- stor bo-|||ne, Pa-|stor bo- ne,|Pas- tor|bo- * * *|
 A2 G2 A2 A2- |"^b" A2 A2 B4 | A2 F2 A2 c2- | cB AG F2 D2 | A4 G2 E2 | F4 E2 E2- | E2 E2 F4 | %31
w: * * ne, se-|* mi- na-|tor ca- sti con-|* * * * si- *|* li- i,|se- mi- na-|* tor ca-|
 E2 C2 E2 G2- | GFED C2 A,2 | E8- | E4 z4 | z2 E2 E2 E2 | A6 A2 | G2 F4 ED | E2 A4 F2 | %39
w: sti con- * si-|* * * * * li-|i,|_|sus- ci- pe|se- mi-|num fru- * *||
 GFED E2 F2 | E4 C4 | z8 | z2 E4 F2 | D2 G3 F E2 | C2 D2 B,4 | A,2 E2 F2 A2 | G2 F2 E2 F2- | %47
w: |* ctus,||quos- in|Ce- ci- li- a|se- mi- na-|sti, quos in Ce-|ci- li- a se-|
 FE D4 C2 | D2 A2 B2 G2 | c3 B A2 F2 | G2 A2 G4 | A4 z4 | z4 A4- | A4 G4 | A6 A2 | A2 A2 B4- | %56
w: * mi- na- *|sti,- quos in Ce-|ci- li- a se-|* mi- na-|sti.|Ce-|* ci-|* li-|a fa mu-|
 B2 B2 A4 | G6 A2 | A4 G2 F2 | G4 A4- | A2 G2 F4 | E3 D C2 D2- | D2 C2 D4 | A,4 z4 | z2 E3 E A2 | %65
w: * la tu-|a, qua-|si a- pis,|qua- si|_ a- *|||pis,|ti- bi ar-|
 G2 c2 B2 A2- | A2 F2 G2 A2- | A2 G2 A4 | G2 E2 F3 E/D/ | E2 F2 G2 A2 |"^b" G2 A4 B2- | BA A4 G2 | %72
w: gu- men- to- sa|_ de- ser- *|* * vit,|ti- bi ar- * *|* gu- men- to-|sa de- ser-||
 A4 z2 E2- | EE A4 G2 | E2 F2 D2 D2- | DEFG A3 B | c4 A2 B2- | B2 G2 A4 | A8 || %79
w: vit, ti-|* bi ar- gu-|men- to- sa de-|||* * ser-|vit.|
"^SECUNDA\nPARS" z8 | z4 A4 | A4 D4 | z4 A4 | A8 | E4 z2 A2- | A2 G2 A2 A2 | c2 B2 A4 | G4 A2 A2 | %88
w: |Nam|spon- sum,|nam|spon-|sum, quem|_ qua- si le-|o- nem fe-|ro- cem ac-|
 B4 A3 G | FEFG AB c2- | cB A4 G2 | B2 A3 G F2 | E4 z2 A2 | G2 A2 c2 B2 | A4 D4 | E4 F4 | A4 A4- | %97
w: ce- * *||||pit, quem|qua- si le- o-|nem fe-|ro- cem|ac- ce-|
 A4 A4 | z2 A2 c3 B/A/ | G2 A2 z2 E2 | A2 A3 A G2 | A2 c4 B2 | A2 G4 A2- | A2 G2 A4- | A4 z2 E2 | %105
w: * pit,|ac- ce- * *|* pit, ad|te qua- i a-|gnum man- su-|e- tis- *|* si- mum,|_ ad|
 A2 A3 A F2 | E2 G2 F2 E2 | FG A4 D2 | A2 A4 G2 | A2 A,B, CD E2 | F2 G2 E4 | F4 F4- | F4 A4 | %113
w: ta qua- si a-|gnum man- su- e-|tis- * * *|* * si-|mum de- * * * sti-|na- * *|* vit.|_ Ce-|
"^b" B6 A2 | A2 A2 G2 A2- |"^b" A2 B2 A2 A2- | A2 G2 E3 D/E/ | F2 E2 D4 | E8 | G4 A4 | E2 E4 A2 | %121
w: ci- li|a fa- mu- la|_ tu- a, fa-|* mu- la _ _|_ _ tu-|a,|Ce- ci-|li- a fa-|
"^b" G2 A2 BA A2- | AG A2 F2 G2 | A8 | z2 E2 G2 FG |"^b" AB A4 G2 | A2 c2 B2 A2 | A2 G3 FGA | %128
w: mu- la tu- * *||a,|qua- si a- *||||
 GFED E3 F | G2 A4 G2 | A2 z A, E2 G2 | F2 E2 F2 E2 | C2 D4 C2 | D2 F3 G A2- | A2 GF G2 C2 | %135
w: ||pis, ti- bi ar-|gu- men- to- sa|de- ser- *||* * * * vit,|
 z2 D2 A2 c2 | B2 A4 c2 | A2 F2 G2 A2 | z2 D2 A2 c2- | c2 B2 A2 B2- | B2 A4 G2 | F4 E3 D | %142
w: ti- bi ar-|gu- men- to-|sa de- ser- vit,|ti- bi ar-|* gu- men- to-|* sa de-|ser- * *|
 CDEF G2 A2- | A2 G2 A4- | A8- | A4 z2 E2 |"^b" FEFG A2 B2 | A8 |] %148
w: |* * vit.|_|* de-|ser- * * * * *|vit.-|
V:3
 z8 | z8 | A6 B2 | c2 d4 c2 | f2 e3 c f2- | f2 ed e2 f2- | fe d4 c2 |"^b" d3 c B4 | A4 d4- | %9
w: ||Do- mi-|ne Je- su|Chri- * * *||||ste, Je-|
 d2 d2 d2 f2- | f2 ed f2 e2 | d4 z4 | g4 f2 e2 | d4 z4 | z2 d4 d2 | d2 f4 e2 | f4 e4 | %17
w: * su Chri- *||ste,|Je- su Chri-|ste,|Do- mi-|ne Je- su|Chri- sti|
 z2 A2 B2 c2 | d4 c2 A2 | e4 z4 | z2 c4 d2 | e4 f4- | f2 ed e2 d2- | d2 c2 B2 A2 | B4 A4 | %25
w: Pa- stor bo-||ne,-|Pa- sto|bo- *|||* ne,|
 z4 z2 d2- | d2 d2 f4 | e2 c2 d2 f2- | fe f2 edcB | c2 d4 c2 | B4 z2 A2- | A2 A2 c4 | %32
w: se-|* mi- na-|tor ca- sti con-|* * si- * * * *|* * li-|i, se-|* mi- na-|
 B2 G2 A2 c2- | c2 B2 c4 | A2 e3 d c2 | B4 A4 | z8 | z4 z2 A2 | A2 A2 d3 d | c2 B2 A4 | %40
w: tor ca- sti con-|* * si-||li- i,-||sus-|ci- pe se- mi-|num fru- ctus,|
 z2 e2 e2 e2 | f3 f e2 d2 | e4 z4 | z2 d2 e2 c2 | f3 e d2 e2- | e2 c2 d3 c | B2 c4 A2 | A4 z2 e2 | %48
w: sus- ci- pe|se- mi- nm fru-|tus,|quo in Ce-|ci- li- a se-|* mi- na- *||sti, quos|
 f2 d2 g3 e | e2 c4 d2 | e2 f2 d2 z d | e2 c2 f3 e | d2 f2 e2 f2- | fef/e/d/c/ d4 | e4 f4- | %55
w: in- Ce- ci- li-|a se- mi-|na- * sti, quos|in Ce- ci- li-|a se- mi- na-||sti.- Ce-|
 f4 g4- | g2 g2 e4 | e6 f2 | f2 ed e2 f2- | f2 e2 f4 | z4 a4- | a2 g2 f4 | e4 z2 f2- | f2 e2 f4 | %64
w: * ci-|* li- a|fa- mu-|la _ _ tu- *|* * a,|qua-|* si a-|pis, qua-|* si a-|
 e4 z2 e2- | ee a2 g2 e2 | f4 e2 c2 | d3 e f4 | e4 d2 A2- | AA d2 c2 A2 | e4 f4 | e2 f4 ed | %72
w: pis, ti-|* bi ar- gu- men-|to- sa de-|ser- * *|* vit, ti-|* bi ar- gu- men-|to- sa|de- ser- * *|
 f4 e4 | z2 A3 A d2 | c2 A2 B4 | A4 z2 A2- | ABcd ef g2- | gfed e4 | d8 || d4 d4 | A2 d4 c2 | %81
w: * vit,|ti- bi ar-|gu- men- to-|sa de-||* * * * ser-|vit.|Nam spon-|sum, quem qua-|
 d2 d2 f4- | f4 e2 f2- | fe d4 c2- | c2 A2 c4 | B4 A4 | z4 z2 e2- | e2 d2 e2 e2 | g4 c2 c2 | %89
w: si le- o-|* nem fe-||* * ro-|* cem,|quem|_ qua- si le-|o- nem fe-|
 d4 c2 e2 | f4 e4 | z4 z2 a2 | a4 e4- | e8- | e4 z2 d2- | d2 c2 d2 d2 | f4 e2 A2 | ABcd e2 f2 | %98
w: ro- cem ac-|ce- pit,|nam|spon- sum,|_|* quem|_ qua- si le-|o- nem fe-|ro- * * * * *|
 e2 e2 ABcd | e8 | z2 A2 e2 e2- | ee f2 e2 g2 | f2 e2 d2 f2- | f2 ed f2 e2 | d2 d4 c2 | d4 c4 | %106
w: cem ac- ce- * * *|pit,|ad te qua-|* si a- gnum man-|su- e- tis- *|* * * * si-|mum de- sti-|na- vit,-|
 z2 f2 a2 a2- | aa f2 e2 g2 | f2 e2 d3 e | f2 e2 e2 A2 |"^#" c2 d4 c2 | d8 | z2 c4 f2- | %113
w: ad te qua-|* si a- gnum man-|su- e- tis- si-|mum de- sti- na-||vit.|Ce- ci-|
 f2 f2 f4- | f4 e4 | c2 d2 f2 e2 | z2 d4 c2 | A2 c2 B4 | A3 B cd e2- | e2 d2 e4 | c8 | e4 f4- | %122
w: * li- a|_ fa-|mu- la tu- a,|fa- mu-|la tu- *||* * ,|Ce-|ci- *|
 f2 e2 d4 | f6 f2 | e2 c2 d2 d2 | f2 e3 d/c/ d2 | c2 e2 g2 f2 | e4 z4 | z4 z2 A2 | d2 f2 e2 d2 | %130
w: * li- a|fa- mu-|la tu- a, qua-|si a- * * *|pis, qua- si a-|pis,|ti-|bi ar- gu- men-|
 f2 e2 c2 d2- | d2 c3 A c2- | cB A4 G2 | A2 A2 d2 f2- | f2 e2 d2 f2- | fe d4 c2 | f3 e d2 c2 | %137
w: to- sa de- ser-|||vit, ti- bi ar-|* gu- men- to-|* * sa de-|ser- * * *|
 f4 e2 c2 | d4 z2 A2 | e2 g2 f2 d2 | f4 e4 | z2 A3 Bcd | e2 c2 d2 f2- | f2 ed e2 d2 | c3 d e2 f2 | %145
w: |vit, ti-|bi ar- gu- men-|to- sa|de- * * *|ser- * * *|||
 e2 d2 e4 | d8- | d8 |] %148
w: |vit.|_|
V:4
 z8 | z8 | z8 | z4 A4- | A2 A2 A4 |"^b" B4 A2 F2- | F2 G2 A4 | D4 z4 | D6 D2 | F2 G4 F2 | %10
w: |||Do-|* mi- ne|Je- su Chri-||ste,|Do- mi-|ne Je- su|
"^b" B4 A2 c2 |"^b" B2 G2 d4 | G4 A4 | z2 d4 G2 | d4 _B4 | _B4 A4 |"^b" F3 G AB A2- | A2 GF E2 A2 | %18
w: Chri- * *||* ste,|Do- mi-|ne Je-|su Chri-|ste, _ _ _ Chri-||
 D4 z4 | z4 F4 | G2 A4 GF | G2 A2 F2 D2 | A6 B2 | A4 G2 F2 | G4 F2 D2 | A4 z4 | z4 z2 A2- | %27
w: ste,|Pa-|stor bo- * *|* * * ne,|Pa- stor|bo- * *||ne,|se-|
"^b" A2 A2 B4 | A2 F2 G2 A2- | A2 F2 G2 A2 | E4 z4 | z4 z2 E2- | E2 E2 F4 | E2 G2 A2 c2- | %34
w: * mi- na-|tor ca- sti con|_ si- * li-|i,-|se-|* mi- na-|tor ca- sti con-|
 cB A2 G2 A2 | E4 z2 A2 | A2 A2 d3 A | c2 d2 A4 | z8 | z4 z2 A2- | A2 A2 A4 | d3 d c2 B2 | A4 A4 | %43
w: * * si- * li-|i, sus-|ci- pe se- mi-|num fru- ctus,||sus-|* ci- pe|se- mi- num fru-|ctus,- quos-|
 B2 G2 c3 B | A2 F2 G4 | A4 D2 F2 | G2 A3 GFE | D2 F2 E4 | D4 z4 | z8 | z2 F2 G2 B2 | A3 G F2 DE | %52
w: in Ce- ci- li-|a se- mi-|na- sti, se-|mi- na- * * *||sti,-||quos- in Ce-|ci- li- a se- *|
 FGAB c2 d2- | dcd/c/B/A/ B4 | A4 d4- | d4 G4- | G2 G2 A4 | c6 F2 | FGAB c2 d2 | c4 z2 F2- | %60
w: * * * * mi- na-||sti.- Ce-|* ci-|* li- a|fa- mu-|la _ _ _ _ tu-|a, qua-|
 F2 E2 DEFG | A2 E2 F2 D2 | A4 D2 d2- | d2 c2 d4 | A8 | z4 z2 A2- | AA d2 c2 A2 |"^b" B4 A2 F2 | %68
w: * si a- * * *||* pis, qua-|* si a-|pis,|ti-|* bi ar- gu- men-|to- sa de|
 G2 A2 D4 | z8 | z2 A3 A d2 |"^b" c2 A2 B4 |"^#" A2 F2 G2 A2- | AGFE F2 G2 | A2 F2 G4 | D2 D3 EFG | %76
w: ser- * vit,||i- bi ar-|gu- men- to-|sa de- ser- *|* * * * vit,- ti-|bi ar- gu-|men- to- * * *|
 A6 G2 | B4 A4 | D8 || z8 | z8 | z4 d4 | d4 A4 | z4 A4 | A8 | E4 z2 A2- | A2 G2 A2 A2 | c2 B2 A4 | %88
w: sa- de-|ser- *|vit.-|||Nam|spon- sum,|nam|spon-|sum, quem|_ qua- si le-|o- nem fe-|
 G4 A2 A2 | _B4 A4 | z8 | d4 d4 | A8 | z2 A4 G2 | A2 c2 B4 | A4 z2 D2 | DEFG A2 F2 | FGAB c2 d2 | %98
w: ro- cem, ac-|ce- pit,||nam spon-|sum,|quem qua-|si le- o-|nem fe-|ro- * * * cem ac-|ce- * * * * *|
 A4 z2 A2 | c3 B/A/ G2 A2 | F4 E2 E2 | A2 A3 A G2 | A2 c2 B2 A2 | _B2 B2 A2 A2 | F2 D2 A4 | %105
w: pit ac-|ce- * * * *|* pit, ad|te qua- si a-|gnum man- su- e|tis- si- mum de-|sti- na- vit,|
 z2 D2 A2 A2- |"^b" AA B2 A4 | d4 c2 B2 | AB cA B2 B2 | A4 A4- | A2 G2 A4 | D8 | F8 | _B6 F2 | %114
w: ad te qua-|* si a- gnum|man- su- e-|tis- * * * * si-|mum de-|* sti- na-|vit.|Ce-|ci- li-|
 FGAB c2 A2- | A2 G2 A4 | F2 G2 A4 | z4 z2 d2- | d2 c2 A2 c2 | B4 A4- | A4 A4 | c4 d4 | %122
w: a _ _ _ _ fa-|* mu- la|tu- * a,|fa-|* mu- la tu-|* a,|_ Ce-|ci- *|
"^b" A2 A2 B4 | A2 F3 EFG | A4 G2 B2 |"^b" A2 A2 c2 B2 | A4 z2 D2 | A2 c2 B2 G2 |"^b" B4 A4 | %129
w: li- a fa-|mu- la _ _ _|_ tu- a,|qua- si a- *|pis, ti-|bi ar- gu- men-|to- sa|
 G2 F2 G4 | D2 A4 G2 | A4 F2 A2- | AG F2 E4 | D4 z2 D2 | A2 c2 B2 A2 | _B4 A4 | D3 E FG A2- | %137
w: de- ser- vit,|ti- bi ar-|gu- men- to-|* sa de- ser-|vit, ti-|bi ar- gu- men-|to- sa|de- * * * ser-|
 A2 d2 c2 A2 |"^b" B4 A4 | z8 |"^#" z4 z2 E2 | FEFG A4- | A4 G2 F2 |"^b" B4 A2 DE | FGAB c2 d2 | %145
w: * vit, de ser-|* vit,||de-|ser- * * * *|* vit, de-|ser- * * *||
 A2 D2 A4 | D8- | D8 |] %148
w: |vit.|_|

